dist/img/space_dashboard_FILL1_wght700_GRAD200_opsz48 1.svg

<svg width="25" height="25" viewBox="0 0 25 25" fill="none" xmlns="http://www.w3.org/2000/svg">
<g opacity="0.5">
<path d="M2.57812 22.4219V2.55209H11.7708V22.4219H2.57812ZM13.2552 10.9896V2.55209H22.4479V10.9896H13.2552ZM22.4479 22.4219H13.2552V12.474H22.4479V22.4219Z" fill="#00E0FF"/>
</g>
</svg>

<svg width="25" height="25" fill="none" xmlns="http://www.w3.org/2000/svg"><path d="M2.578 22.422V2.552h9.193v19.87H2.578ZM13.255 10.99V2.552h9.193v8.438h-9.193Zm9.193 11.432h-9.193v-9.948h9.193v9.948Z" fill="#00E0FF" opacity=".5"/></svg>
